X:326
T:Negro Girls Waltz. RH.326
R:waltz
S:Rev.R.Harrison’s MS,c1815,Cumbria
O:England
A:Temple Sowerby,Cumbria
Z:vmp.Simon Wilson. Review PJH, 2008.
M:3/8
L:1/16
Q:3/8=50
K:D
a2|ad’c’d’ ad’|ad’d’a fa|gc’c’g fg|f4 a2|!
ad’c’d’ ad’|ad’d’a fa|gd’d’g ec|d4:|!
|:ag|fadf af|gbeg ag|egce ge|a4 ag|!
fadf af|gbeg bg|e2cA ce|d4:|

